X: 32150
T: Peter Parson's
R: barndance
M: 4/4
K: Dmajor
|:fedf edcB|A2FA DAFA|B2A2 G2E2|ABA2 F2D2|
fedf edcB|A2FA DAFA|B2A2 G2E2|D2F2 D3z:|
|:A2AB defg|a2f2 d2fa|g2e2 c2ag|fedc dfa2|
A2AB defg|a2f2 d2fa|gfge cABc|1 d2f2 d2dB:|2 d2f2 daag||

